static/assets/img/es-logo.svg

<?xml version="1.0" encoding="utf-8"?>
<svg width="36px" height="36px" viewBox="0 0 36 36" version="1.1" xmlns:xlink="http://www.w3.org/1999/xlink" xmlns="http://www.w3.org/2000/svg">
  <desc>Created with Lunacy</desc>
  <defs>
    <path d="M2.999 0L33.001 0Q33.1483 0 33.295 0.014441Q33.4416 0.028882 33.5861 0.0576249Q33.7306 0.0863679 33.8716 0.129136Q34.0126 0.171904 34.1487 0.228285Q34.2848 0.284667 34.4147 0.354118Q34.5447 0.42357 34.6671 0.505423Q34.7897 0.587276 34.9035 0.680742Q35.0174 0.774208 35.1216 0.878387Q35.2258 0.982566 35.3193 1.09645Q35.4127 1.21034 35.4946 1.33284Q35.5764 1.45535 35.6459 1.58528Q35.7153 1.71522 35.7717 1.85133Q35.8281 1.98745 35.8709 2.12844Q35.9136 2.26942 35.9424 2.41392Q35.9711 2.55842 35.9856 2.70505Q36 2.85167 36 2.999L36 33.001Q36 33.1483 35.9856 33.295Q35.9711 33.4416 35.9424 33.5861Q35.9136 33.7306 35.8709 33.8716Q35.8281 34.0126 35.7717 34.1487Q35.7153 34.2848 35.6459 34.4147Q35.5764 34.5447 35.4946 34.6671Q35.4127 34.7897 35.3193 34.9035Q35.2258 35.0174 35.1216 35.1216Q35.0174 35.2258 34.9035 35.3193Q34.7897 35.4127 34.6671 35.4946Q34.5447 35.5764 34.4147 35.6459Q34.2848 35.7153 34.1487 35.7717Q34.0126 35.8281 33.8716 35.8709Q33.7306 35.9136 33.5861 35.9424Q33.4416 35.9711 33.295 35.9856Q33.1483 36 33.001 36L2.999 36Q2.85167 36 2.70505 35.9856Q2.55842 35.9711 2.41392 35.9424Q2.26942 35.9136 2.12844 35.8709Q1.98745 35.8281 1.85133 35.7717Q1.71522 35.7153 1.58528 35.6459Q1.45535 35.5764 1.33284 35.4946Q1.21034 35.4127 1.09645 35.3193Q0.982566 35.2258 0.878387 35.1216Q0.774208 35.0174 0.680742 34.9035Q0.587276 34.7897 0.505423 34.6671Q0.42357 34.5447 0.354118 34.4147Q0.284667 34.2848 0.228285 34.1487Q0.171904 34.0126 0.129136 33.8716Q0.0863679 33.7306 0.0576249 33.5861Q0.028882 33.4416 0.014441 33.295Q0 33.1483 0 33.001L0 2.999Q0 2.85167 0.014441 2.70505Q0.028882 2.55842 0.0576249 2.41392Q0.0863679 2.26942 0.129136 2.12844Q0.171904 1.98745 0.228285 1.85133Q0.284667 1.71522 0.354118 1.58528Q0.42357 1.45535 0.505423 1.33284Q0.587276 1.21034 0.680742 1.09645Q0.774208 0.982566 0.878387 0.878387Q0.982566 0.774208 1.09645 0.680742Q1.21034 0.587276 1.33284 0.505423Q1.45535 0.42357 1.58528 0.354118Q1.71522 0.284667 1.85133 0.228285Q1.98745 0.171904 2.12844 0.129136Q2.26942 0.0863679 2.41392 0.0576249Q2.55842 0.028882 2.70505 0.014441Q2.85167 0 2.999 0Z" id="path_1" />
    <path d="M0 8L0 4C0 2.89543 0.390524 1.95262 1.17157 1.17157C1.95262 0.390524 2.89543 0 4 0L32 0C33.1046 0 34.0474 0.390524 34.8284 1.17157C35.6095 1.95262 36 2.89543 36 4L36 32C36 33.1046 35.6095 34.0474 34.8284 34.8284C34.0474 35.6095 33.1046 36 32 36L4 36C2.89543 36 1.95262 35.6095 1.17157 34.8284C0.390524 34.0474 0 33.1046 0 32L0 8Z" id="path_2" />
    <path d="M0 0L414 0L414 1334L0 1334L0 0Z" id="path_3" />
    <path d="M14 24.05L13.35 25.36L11.93 25.55L12.93 26.55L12.74 28L14 27.31L15.26 28L15 26.56L16 25.56L14.58 25.37L14 24.05ZM20.12 21.51L19.48 22.81L18.05 23L19.05 24L18.82 25.4L20.08 24.75L21.38 25.4L21.12 24L22.12 23L20.69 22.77L20.12 21.51ZM7.88 21.51L7.23 22.81L5.8 23L6.8 24L6.54 25.4L7.84 24.75L9.1 25.4L8.87 24L9.87 23L8.44 22.77L7.88 21.51ZM24.5 17.43L23.85 18.73L22.43 18.93L23.43 19.93L23.17 21.37L24.47 20.68L25.73 21.37L25.47 19.93L26.47 18.93L25.05 18.73L24.5 17.43ZM3.5 17.43L2.88 18.73L1.46 18.93L2.46 19.93L2.2 21.37L3.46 20.68L4.76 21.37L4.5 19.93L5.5 18.93L4.08 18.73L3.5 17.43ZM25.93 12L25.31 13.3L23.88 13.53L24.88 14.53L24.66 16L25.93 15.32L27.22 16L27 14.55L28 13.55L26.57 13.32L25.93 12ZM2.07 12L1.43 13.3L0 13.54L1 14.54L0.78 16L2.07 15.32L3.34 16L3.11 14.56L4.11 13.56L2.68 13.33L2.07 12ZM24.5 5.91L23.85 7.18L22.43 7.41L23.43 8.41L23.17 9.85L24.47 9.16L25.73 9.85L25.47 8.41L26.47 7.41L25.05 7.18L24.5 5.91ZM3.5 5.91L2.88 7.18L1.46 7.41L2.46 8.41L2.2 9.85L3.46 9.16L4.76 9.85L4.5 8.41L5.5 7.41L4.08 7.18L3.5 5.91ZM20.12 1.91L19.48 3.22L18.05 3.41L19.05 4.41L18.82 5.85L20.08 5.16L21.38 5.85L21.12 4.41L22.12 3.41L20.69 3.22L20.12 1.91ZM7.88 1.91L7.23 3.22L5.8 3.36L6.8 4.36L6.54 5.8L7.84 5.11L9.1 5.8L8.87 4.36L9.87 3.36L8.44 3.17L7.88 1.91ZM14 0L13.35 1.31L11.93 1.5L12.93 2.5L12.74 4L14 3.3L15.26 4L15 2.51L16 1.51L14.58 1.32L14 0Z" id="path_4" />
    <path d="M3 4.57C3.41582 4.57547 3.75004 4.91414 3.75 5.33C3.75 5.74422 3.41421 6.08 3 6.08C2.58579 6.08 2.25 5.74422 2.25 5.33C2.25 4.91407 2.58424 4.57543 3.00007 4.57L3 4.57ZM3 0.76C3.40393 0.757144 3.79172 0.918412 4.07451 1.20686C4.3573 1.4953 4.51085 1.8862 4.5 2.29L4.5 2.67L1.5 2.67L1.5 2.29C1.48915 1.88621 1.6427 1.49531 1.92549 1.20686C2.20828 0.918414 2.59606 0.757145 3 0.760001L3 0.76ZM3 0C2.39711 0.00261497 1.82026 0.24601 1.39772 0.67606C0.975183 1.10611 0.741991 1.68716 0.749999 2.29L0.75 2.67C0.334174 2.67547 -3.62396e-05 3.01414 0 3.43L0 7.24C0 7.65593 0.33424 7.99456 0.750067 8L5.25 8C5.66582 7.99453 6.00004 7.65586 6 7.24L6 3.43C6 3.01407 5.66576 2.67543 5.24993 2.67L5.25 2.29C5.25801 1.68717 5.02482 1.10611 4.60228 0.676064C4.17975 0.246013 3.6029 0.00261688 3.00001 0L3 0Z" id="path_5" />
    <clipPath id="mask_1">
      <use xlink:href="#path_1" />
    </clipPath>
    <clipPath id="mask_2">
      <use xlink:href="#path_2" />
    </clipPath>
    <clipPath id="mask_3">
      <use xlink:href="#path_3" />
    </clipPath>
    <clipPath id="mask_4">
      <use xlink:href="#path_4" />
    </clipPath>
    <clipPath id="mask_5">
      <use xlink:href="#path_5" />
    </clipPath>
  </defs>
  <g id="es-logo">
    <path d="M2.999 0L33.001 0Q33.1483 0 33.295 0.014441Q33.4416 0.028882 33.5861 0.0576249Q33.7306 0.0863679 33.8716 0.129136Q34.0126 0.171904 34.1487 0.228285Q34.2848 0.284667 34.4147 0.354118Q34.5447 0.42357 34.6671 0.505423Q34.7897 0.587276 34.9035 0.680742Q35.0174 0.774208 35.1216 0.878387Q35.2258 0.982566 35.3193 1.09645Q35.4127 1.21034 35.4946 1.33284Q35.5764 1.45535 35.6459 1.58528Q35.7153 1.71522 35.7717 1.85133Q35.8281 1.98745 35.8709 2.12844Q35.9136 2.26942 35.9424 2.41392Q35.9711 2.55842 35.9856 2.70505Q36 2.85167 36 2.999L36 33.001Q36 33.1483 35.9856 33.295Q35.9711 33.4416 35.9424 33.5861Q35.9136 33.7306 35.8709 33.8716Q35.8281 34.0126 35.7717 34.1487Q35.7153 34.2848 35.6459 34.4147Q35.5764 34.5447 35.4946 34.6671Q35.4127 34.7897 35.3193 34.9035Q35.2258 35.0174 35.1216 35.1216Q35.0174 35.2258 34.9035 35.3193Q34.7897 35.4127 34.6671 35.4946Q34.5447 35.5764 34.4147 35.6459Q34.2848 35.7153 34.1487 35.7717Q34.0126 35.8281 33.8716 35.8709Q33.7306 35.9136 33.5861 35.9424Q33.4416 35.9711 33.295 35.9856Q33.1483 36 33.001 36L2.999 36Q2.85167 36 2.70505 35.9856Q2.55842 35.9711 2.41392 35.9424Q2.26942 35.9136 2.12844 35.8709Q1.98745 35.8281 1.85133 35.7717Q1.71522 35.7153 1.58528 35.6459Q1.45535 35.5764 1.33284 35.4946Q1.21034 35.4127 1.09645 35.3193Q0.982566 35.2258 0.878387 35.1216Q0.774208 35.0174 0.680742 34.9035Q0.587276 34.7897 0.505423 34.6671Q0.42357 34.5447 0.354118 34.4147Q0.284667 34.2848 0.228285 34.1487Q0.171904 34.0126 0.129136 33.8716Q0.0863679 33.7306 0.0576249 33.5861Q0.028882 33.4416 0.014441 33.295Q0 33.1483 0 33.001L0 2.999Q0 2.85167 0.014441 2.70505Q0.028882 2.55842 0.0576249 2.41392Q0.0863679 2.26942 0.129136 2.12844Q0.171904 1.98745 0.228285 1.85133Q0.284667 1.71522 0.354118 1.58528Q0.42357 1.45535 0.505423 1.33284Q0.587276 1.21034 0.680742 1.09645Q0.774208 0.982566 0.878387 0.878387Q0.982566 0.774208 1.09645 0.680742Q1.21034 0.587276 1.33284 0.505423Q1.45535 0.42357 1.58528 0.354118Q1.71522 0.284667 1.85133 0.228285Q1.98745 0.171904 2.12844 0.129136Q2.26942 0.0863679 2.41392 0.0576249Q2.55842 0.028882 2.70505 0.014441Q2.85167 0 2.999 0Z" id="Background" fill="none" fill-rule="evenodd" stroke="none" />
    <g clip-path="url(#mask_1)">
      <g id="Слой_2">
        <g id="Слой_1-2">
          <g id="Mask-group">
            <path d="M0 8L0 4C0 2.89543 0.390524 1.95262 1.17157 1.17157C1.95262 0.390524 2.89543 0 4 0L32 0C33.1046 0 34.0474 0.390524 34.8284 1.17157C35.6095 1.95262 36 2.89543 36 4L36 32C36 33.1046 35.6095 34.0474 34.8284 34.8284C34.0474 35.6095 33.1046 36 32 36L4 36C2.89543 36 1.95262 35.6095 1.17157 34.8284C0.390524 34.0474 0 33.1046 0 32L0 8Z" id="Rectangle" fill="none" fill-rule="evenodd" stroke="none" />
            <g clip-path="url(#mask_2)">
              <g id="Group" transform="translate(-40 -1157)">
                <g id="Mask-group">
                  <path d="M0 0L414 0L414 1334L0 1334L0 0Z" id="Rectangle" fill="none" fill-rule="evenodd" stroke="none" />
                  <g clip-path="url(#mask_3)">
                    <g id="Group" transform="translate(40 1157)">
                      <path d="M0 0L36 0L36 36L0 36L0 0Z" id="Rectangle" fill="#1565C0" fill-rule="evenodd" stroke="none" />
                    </g>
                  </g>
                </g>
              </g>
            </g>
          </g>
          <g id="Mask-group" transform="translate(4 4)">
            <path d="M14 24.05L13.35 25.36L11.93 25.55L12.93 26.55L12.74 28L14 27.31L15.26 28L15 26.56L16 25.56L14.58 25.37L14 24.05ZM20.12 21.51L19.48 22.81L18.05 23L19.05 24L18.82 25.4L20.08 24.75L21.38 25.4L21.12 24L22.12 23L20.69 22.77L20.12 21.51ZM7.88 21.51L7.23 22.81L5.8 23L6.8 24L6.54 25.4L7.84 24.75L9.1 25.4L8.87 24L9.87 23L8.44 22.77L7.88 21.51ZM24.5 17.43L23.85 18.73L22.43 18.93L23.43 19.93L23.17 21.37L24.47 20.68L25.73 21.37L25.47 19.93L26.47 18.93L25.05 18.73L24.5 17.43ZM3.5 17.43L2.88 18.73L1.46 18.93L2.46 19.93L2.2 21.37L3.46 20.68L4.76 21.37L4.5 19.93L5.5 18.93L4.08 18.73L3.5 17.43ZM25.93 12L25.31 13.3L23.88 13.53L24.88 14.53L24.66 16L25.93 15.32L27.22 16L27 14.55L28 13.55L26.57 13.32L25.93 12ZM2.07 12L1.43 13.3L0 13.54L1 14.54L0.78 16L2.07 15.32L3.34 16L3.11 14.56L4.11 13.56L2.68 13.33L2.07 12ZM24.5 5.91L23.85 7.18L22.43 7.41L23.43 8.41L23.17 9.85L24.47 9.16L25.73 9.85L25.47 8.41L26.47 7.41L25.05 7.18L24.5 5.91ZM3.5 5.91L2.88 7.18L1.46 7.41L2.46 8.41L2.2 9.85L3.46 9.16L4.76 9.85L4.5 8.41L5.5 7.41L4.08 7.18L3.5 5.91ZM20.12 1.91L19.48 3.22L18.05 3.41L19.05 4.41L18.82 5.85L20.08 5.16L21.38 5.85L21.12 4.41L22.12 3.41L20.69 3.22L20.12 1.91ZM7.88 1.91L7.23 3.22L5.8 3.36L6.8 4.36L6.54 5.8L7.84 5.11L9.1 5.8L8.87 4.36L9.87 3.36L8.44 3.17L7.88 1.91ZM14 0L13.35 1.31L11.93 1.5L12.93 2.5L12.74 4L14 3.3L15.26 4L15 2.51L16 1.51L14.58 1.32L14 0Z" id="Shape" fill="none" fill-rule="evenodd" stroke="none" />
            <g clip-path="url(#mask_4)">
              <g id="Group" transform="translate(-44 -1161)">
                <g id="Mask-group">
                  <path d="M0 0L414 0L414 1334L0 1334L0 0Z" id="Rectangle" fill="none" fill-rule="evenodd" stroke="none" />
                  <g clip-path="url(#mask_3)">
                    <g id="Group" transform="translate(44 1161)">
                      <path d="M0 0L28 0L28 28L0 28L0 0Z" id="Rectangle" fill="#FFD54F" fill-rule="evenodd" stroke="none" />
                    </g>
                  </g>
                </g>
              </g>
            </g>
          </g>
          <g id="Mask-group" transform="translate(15 14)">
            <path d="M3 4.57C3.41582 4.57547 3.75004 4.91414 3.75 5.33C3.75 5.74422 3.41421 6.08 3 6.08C2.58579 6.08 2.25 5.74422 2.25 5.33C2.25 4.91407 2.58424 4.57543 3.00007 4.57L3 4.57ZM3 0.76C3.40393 0.757144 3.79172 0.918412 4.07451 1.20686C4.3573 1.4953 4.51085 1.8862 4.5 2.29L4.5 2.67L1.5 2.67L1.5 2.29C1.48915 1.88621 1.6427 1.49531 1.92549 1.20686C2.20828 0.918414 2.59606 0.757145 3 0.760001L3 0.76ZM3 0C2.39711 0.00261497 1.82026 0.24601 1.39772 0.67606C0.975183 1.10611 0.741991 1.68716 0.749999 2.29L0.75 2.67C0.334174 2.67547 -3.62396e-05 3.01414 0 3.43L0 7.24C0 7.65593 0.33424 7.99456 0.750067 8L5.25 8C5.66582 7.99453 6.00004 7.65586 6 7.24L6 3.43C6 3.01407 5.66576 2.67543 5.24993 2.67L5.25 2.29C5.25801 1.68717 5.02482 1.10611 4.60228 0.676064C4.17975 0.246013 3.6029 0.00261688 3.00001 0L3 0Z" id="Shape" fill="none" fill-rule="evenodd" stroke="none" />
            <g clip-path="url(#mask_5)">
              <g id="Group" transform="translate(-55 -1171)">
                <g id="Mask-group">
                  <path d="M0 0L414 0L414 1334L0 1334L0 0Z" id="Rectangle" fill="none" fill-rule="evenodd" stroke="none" />
                  <g clip-path="url(#mask_3)">
                    <g id="Group" transform="translate(55 1171)">
                      <path d="M0 0L6 0L6 8L0 8L0 0Z" id="Rectangle" fill="#FFFFFF" fill-rule="evenodd" stroke="none" />
                    </g>
                  </g>
                </g>
              </g>
            </g>
          </g>
        </g>
      </g>
    </g>
  </g>
</svg>

<svg width="36" height="36" xmlns:xlink="http://www.w3.org/1999/xlink" xmlns="http://www.w3.org/2000/svg"><defs><clipPath id="mask_1"><use xlink:href="#path_1"/></clipPath><clipPath id="mask_2"><use xlink:href="#path_2"/></clipPath><clipPath id="mask_3"><use xlink:href="#path_3"/></clipPath><clipPath id="mask_4"><use xlink:href="#path_4"/></clipPath><clipPath id="mask_5"><use xlink:href="#path_5"/></clipPath><path d="M2.999 0h30.002q.147 0 .294.014.147.015.291.044.145.028.286.071.14.043.277.1.136.056.266.125.13.07.252.151.123.082.236.176.114.093.219.197.104.105.197.218.094.114.176.237.081.122.15.252.07.13.127.266.056.136.099.277.043.141.071.286.03.144.044.291.014.147.014.294v30.002q0 .147-.014.294-.015.147-.044.291-.028.145-.071.286-.043.14-.1.277-.056.136-.125.266-.07.13-.151.252-.082.123-.176.236-.093.114-.197.219-.105.104-.218.197-.114.094-.237.176-.122.081-.252.15-.13.07-.266.127-.136.056-.277.099-.141.043-.286.071-.144.03-.291.044-.147.014-.294.014H2.999q-.147 0-.294-.014-.147-.015-.291-.044-.145-.028-.286-.071-.14-.043-.277-.1-.136-.056-.266-.125-.13-.07-.252-.151-.123-.082-.237-.176-.113-.093-.218-.197-.104-.105-.197-.218-.094-.114-.176-.237-.081-.122-.15-.252-.07-.13-.127-.266-.056-.136-.099-.277-.043-.141-.071-.286-.03-.144-.044-.291Q0 33.148 0 33.001V2.999q0-.147.014-.294.015-.147.044-.291.028-.145.071-.286.043-.14.1-.277.056-.136.125-.266.07-.13.151-.252.082-.123.176-.237Q.774.983.878.878q.105-.104.218-.197.114-.094.237-.176.122-.081.252-.15.13-.07.266-.127.136-.056.277-.099.141-.043.286-.071.144-.03.291-.044Q2.852 0 2.999 0z" id="path_1"/><path d="M0 8V4c0-1.105.39-2.047 1.172-2.828A3.854 3.854 0 014 0h28c1.105 0 2.047.39 2.828 1.172A3.854 3.854 0 0136 4v28c0 1.105-.39 2.047-1.172 2.828A3.854 3.854 0 0132 36H4a3.854 3.854 0 01-2.828-1.172A3.854 3.854 0 010 32V8z" id="path_2"/><path d="M0 0h414v1334H0V0z" id="path_3"/><path d="M14 24.05l-.65 1.31-1.42.19 1 1-.19 1.45 1.26-.69 1.26.69-.26-1.44 1-1-1.42-.19-.58-1.32zm6.12-2.54l-.64 1.3-1.43.19 1 1-.23 1.4 1.26-.65 1.3.65-.26-1.4 1-1-1.43-.23-.57-1.26zm-12.24 0l-.65 1.3L5.8 23l1 1-.26 1.4 1.3-.65 1.26.65-.23-1.4 1-1-1.43-.23-.56-1.26zm16.62-4.08l-.65 1.3-1.42.2 1 1-.26 1.44 1.3-.69 1.26.69-.26-1.44 1-1-1.42-.2-.55-1.3zm-21 0l-.62 1.3-1.42.2 1 1-.26 1.44 1.26-.69 1.3.69-.26-1.44 1-1-1.42-.2-.58-1.3zM25.93 12l-.62 1.3-1.43.23 1 1-.22 1.47 1.27-.68 1.29.68-.22-1.45 1-1-1.43-.23-.64-1.32zM2.07 12l-.64 1.3-1.43.24 1 1L.78 16l1.29-.68 1.27.68-.23-1.44 1-1-1.43-.23L2.07 12zM24.5 5.91l-.65 1.27-1.42.23 1 1-.26 1.44 1.3-.69 1.26.69-.26-1.44 1-1-1.42-.23-.55-1.27zm-21 0l-.62 1.27-1.42.23 1 1-.26 1.44 1.26-.69 1.3.69-.26-1.44 1-1-1.42-.23-.58-1.27zm16.62-4l-.64 1.31-1.43.19 1 1-.23 1.44 1.26-.69 1.3.69-.26-1.44 1-1-1.43-.19-.57-1.31zm-12.24 0l-.65 1.31-1.43.14 1 1-.26 1.44 1.3-.69 1.26.69-.23-1.44 1-1-1.43-.19-.56-1.26zM14 0l-.65 1.31-1.42.19 1 1-.19 1.5L14 3.3l1.26.7L15 2.51l1-1-1.42-.19L14 0z" id="path_4"/><path d="M3 4.57a.76.76 0 01.75.76.75.75 0 11-1.5 0A.76.76 0 013 4.57zM3 .76a1.49 1.49 0 011.5 1.53v.38h-3v-.38A1.49 1.49 0 013 .76zM3 0A2.26 2.26 0 00.75 2.29v.38a.76.76 0 00-.75.76v3.81A.76.76 0 00.75 8h4.5A.76.76 0 006 7.24V3.43a.76.76 0 00-.75-.76v-.38A2.26 2.26 0 003 0z" id="path_5"/></defs><g id="es-logo"><path d="M2.999 0h30.002q.147 0 .294.014.147.015.291.044.145.028.286.071.14.043.277.1.136.056.266.125.13.07.252.151.123.082.236.176.114.093.219.197.104.105.197.218.094.114.176.237.081.122.15.252.07.13.127.266.056.136.099.277.043.141.071.286.03.144.044.291.014.147.014.294v30.002q0 .147-.014.294-.015.147-.044.291-.028.145-.071.286-.043.14-.1.277-.056.136-.125.266-.07.13-.151.252-.082.123-.176.236-.093.114-.197.219-.105.104-.218.197-.114.094-.237.176-.122.081-.252.15-.13.07-.266.127-.136.056-.277.099-.141.043-.286.071-.144.03-.291.044-.147.014-.294.014H2.999q-.147 0-.294-.014-.147-.015-.291-.044-.145-.028-.286-.071-.14-.043-.277-.1-.136-.056-.266-.125-.13-.07-.252-.151-.123-.082-.237-.176-.113-.093-.218-.197-.104-.105-.197-.218-.094-.114-.176-.237-.081-.122-.15-.252-.07-.13-.127-.266-.056-.136-.099-.277-.043-.141-.071-.286-.03-.144-.044-.291Q0 33.148 0 33.001V2.999q0-.147.014-.294.015-.147.044-.291.028-.145.071-.286.043-.14.1-.277.056-.136.125-.266.07-.13.151-.252.082-.123.176-.237Q.774.983.878.878q.105-.104.218-.197.114-.094.237-.176.122-.081.252-.15.13-.07.266-.127.136-.056.277-.099.141-.043.286-.071.144-.03.291-.044Q2.852 0 2.999 0z" id="Background" fill="none" fill-rule="evenodd" stroke="none"/><g clip-path="url(#mask_1)"><g id="Слой_2"><g id="Слой_1-2"><g id="Mask-group"><path d="M0 8V4c0-1.105.39-2.047 1.172-2.828A3.854 3.854 0 014 0h28c1.105 0 2.047.39 2.828 1.172A3.854 3.854 0 0136 4v28c0 1.105-.39 2.047-1.172 2.828A3.854 3.854 0 0132 36H4a3.854 3.854 0 01-2.828-1.172A3.854 3.854 0 010 32V8z" id="Rectangle" fill="none" fill-rule="evenodd" stroke="none"/><g clip-path="url(#mask_2)"><g id="Group" transform="translate(-40 -1157)"><g id="Mask-group"><path d="M0 0h414v1334H0V0z" id="Rectangle" fill="none" fill-rule="evenodd" stroke="none"/><g clip-path="url(#mask_3)"><g id="Group" transform="translate(40 1157)"><path d="M0 0h36v36H0V0z" id="Rectangle" fill="#1565C0" fill-rule="evenodd" stroke="none"/></g></g></g></g></g></g><g id="Mask-group" transform="translate(4 4)"><path d="M14 24.05l-.65 1.31-1.42.19 1 1-.19 1.45 1.26-.69 1.26.69-.26-1.44 1-1-1.42-.19-.58-1.32zm6.12-2.54l-.64 1.3-1.43.19 1 1-.23 1.4 1.26-.65 1.3.65-.26-1.4 1-1-1.43-.23-.57-1.26zm-12.24 0l-.65 1.3L5.8 23l1 1-.26 1.4 1.3-.65 1.26.65-.23-1.4 1-1-1.43-.23-.56-1.26zm16.62-4.08l-.65 1.3-1.42.2 1 1-.26 1.44 1.3-.69 1.26.69-.26-1.44 1-1-1.42-.2-.55-1.3zm-21 0l-.62 1.3-1.42.2 1 1-.26 1.44 1.26-.69 1.3.69-.26-1.44 1-1-1.42-.2-.58-1.3zM25.93 12l-.62 1.3-1.43.23 1 1-.22 1.47 1.27-.68 1.29.68-.22-1.45 1-1-1.43-.23-.64-1.32zM2.07 12l-.64 1.3-1.43.24 1 1L.78 16l1.29-.68 1.27.68-.23-1.44 1-1-1.43-.23L2.07 12zM24.5 5.91l-.65 1.27-1.42.23 1 1-.26 1.44 1.3-.69 1.26.69-.26-1.44 1-1-1.42-.23-.55-1.27zm-21 0l-.62 1.27-1.42.23 1 1-.26 1.44 1.26-.69 1.3.69-.26-1.44 1-1-1.42-.23-.58-1.27zm16.62-4l-.64 1.31-1.43.19 1 1-.23 1.44 1.26-.69 1.3.69-.26-1.44 1-1-1.43-.19-.57-1.31zm-12.24 0l-.65 1.31-1.43.14 1 1-.26 1.44 1.3-.69 1.26.69-.23-1.44 1-1-1.43-.19-.56-1.26zM14 0l-.65 1.31-1.42.19 1 1-.19 1.5L14 3.3l1.26.7L15 2.51l1-1-1.42-.19L14 0z" id="Shape" fill="none" fill-rule="evenodd" stroke="none"/><g clip-path="url(#mask_4)"><g id="Group" transform="translate(-44 -1161)"><g id="Mask-group"><path d="M0 0h414v1334H0V0z" id="Rectangle" fill="none" fill-rule="evenodd" stroke="none"/><g clip-path="url(#mask_3)"><g id="Group" transform="translate(44 1161)"><path d="M0 0h28v28H0V0z" id="Rectangle" fill="#FFD54F" fill-rule="evenodd" stroke="none"/></g></g></g></g></g></g><g id="Mask-group" transform="translate(15 14)"><path d="M3 4.57a.76.76 0 01.75.76.75.75 0 11-1.5 0A.76.76 0 013 4.57zM3 .76a1.49 1.49 0 011.5 1.53v.38h-3v-.38A1.49 1.49 0 013 .76zM3 0A2.26 2.26 0 00.75 2.29v.38a.76.76 0 00-.75.76v3.81A.76.76 0 00.75 8h4.5A.76.76 0 006 7.24V3.43a.76.76 0 00-.75-.76v-.38A2.26 2.26 0 003 0z" id="Shape" fill="none" fill-rule="evenodd" stroke="none"/><g clip-path="url(#mask_5)"><g id="Group" transform="translate(-55 -1171)"><g id="Mask-group"><path d="M0 0h414v1334H0V0z" id="Rectangle" fill="none" fill-rule="evenodd" stroke="none"/><g clip-path="url(#mask_3)"><g id="Group" transform="translate(55 1171)"><path d="M0 0h6v8H0V0z" id="Rectangle" fill="#FFF" fill-rule="evenodd" stroke="none"/></g></g></g></g></g></g></g></g></g></g></svg>
